X: 38780
T: Stumbling To The Session
R: jig
M: 6/8
K: Dmajor
|:"D" A2 F2 E2|ABA ~F3|"A7" E2 E Bcd|A2 F GFE|
"D" A2 F2 E2|ABA ~F3|"A7" E2 E Bcd|"D" AEF D3:|
|:"D" d2 e2 f2|"A7" gBc ~A3|"C" Ged =cGE|G2 G GED|
[1 "D" d2 e2 f2|"A7" gBc ~A3|"C" Ged =cGE|GEF "D" D3:|
[2 "D" d2 e2 f2|~a3 "C" bge|ged =cAG|GEF "D" D3||

